build/img/Facebook.svg

<svg width="20" height="20" viewBox="0 0 20 20" fill="#FFFFFF" xmlns="http://www.w3.org/2000/svg">
<path fill-rule="evenodd" clip-rule="evenodd" d="M0 10.0558C0 15.0275 3.61083 19.1617 8.33333 20V12.7775H5.83333V10H8.33333V7.7775C8.33333 5.2775 9.94417 3.88917 12.2225 3.88917C12.9442 3.88917 13.7225 4 14.4442 4.11083V6.66667H13.1667C11.9442 6.66667 11.6667 7.2775 11.6667 8.05583V10H14.3333L13.8892 12.7775H11.6667V20C16.3892 19.1617 20 15.0283 20 10.0558C20 4.525 15.5 0 10 0C4.5 0 0 4.525 0 10.0558Z" fill="#7D8D9B"/>
</svg>

<svg width="20" height="20" fill="#FFF" xmlns="http://www.w3.org/2000/svg"><path fill-rule="evenodd" clip-rule="evenodd" d="M0 10.056C0 15.028 3.61 19.162 8.333 20v-7.223h-2.5V10h2.5V7.777c0-2.5 1.611-3.888 3.89-3.888.721 0 1.5.111 2.221.222v2.556h-1.277c-1.223 0-1.5.61-1.5 1.389V10h2.666l-.444 2.777h-2.222V20C16.389 19.162 20 15.028 20 10.056 20 4.525 15.5 0 10 0S0 4.525 0 10.056z" fill="#7D8D9B"/></svg>
